Numix/16/status/indicator-keyboard-Pl-4.svg

<?xml version="1.0" encoding="UTF-8" standalone="no"?>
<svg
   xmlns:dc="http://purl.org/dc/elements/1.1/"
   xmlns:cc="http://creativecommons.org/ns#"
   xmlns:rdf="http://www.w3.org/1999/02/22-rdf-syntax-ns#"
   xmlns:svg="http://www.w3.org/2000/svg"
   xmlns="http://www.w3.org/2000/svg"
   xmlns:sodipodi="http://sodipodi.sourceforge.net/DTD/sodipodi-0.dtd"
   xmlns:inkscape="http://www.inkscape.org/namespaces/inkscape"
   viewBox="0 0 16 16"
   id="svg2"
   version="1.1"
   inkscape:version="0.91 r13725"
   sodipodi:docname="indicator-keyboard-Pl-4.svg">
  <metadata
     id="metadata14">
    <rdf:RDF>
      <cc:Work
         rdf:about="">
        <dc:format>image/svg+xml</dc:format>
        <dc:type
           rdf:resource="http://purl.org/dc/dcmitype/StillImage" />
      </cc:Work>
    </rdf:RDF>
  </metadata>
  <defs
     id="defs12" />
  <sodipodi:namedview
     pagecolor="#ffffff"
     bordercolor="#666666"
     borderopacity="1"
     objecttolerance="10"
     gridtolerance="10"
     guidetolerance="10"
     inkscape:pageopacity="0"
     inkscape:pageshadow="2"
     inkscape:window-width="640"
     inkscape:window-height="480"
     id="namedview10"
     showgrid="false"
     inkscape:zoom="14.75"
     inkscape:cx="8"
     inkscape:cy="8"
     inkscape:window-x="65"
     inkscape:window-y="24"
     inkscape:window-maximized="0"
     inkscape:current-layer="svg2" />
  <path
     style="fill:#ececec;fill-opacity:1"
     d="M 1.5996094 0 C 0.71320937 2.9605947e-16 0 0.71320937 0 1.5996094 L 0 14.400391 C 2.9605947e-16 15.286791 0.71320937 16 1.5996094 16 L 14.400391 16 C 15.286791 16 16 15.286791 16 14.400391 L 16 1.5996094 C 16 0.71320937 15.286791 0 14.400391 0 L 1.5996094 0 z M 8.953125 4.1113281 L 8.953125 9.9628906 C 8.953125 10.106891 8.9662344 10.2225 8.9902344 10.3125 C 9.0202344 10.3965 9.0612344 10.465531 9.1152344 10.519531 C 9.1692344 10.567531 9.2382656 10.604906 9.3222656 10.628906 C 9.4122656 10.652906 9.5167188 10.673406 9.6367188 10.691406 L 9.5566406 11.177734 C 9.3586406 11.171734 9.1851563 11.143703 9.0351562 11.095703 C 8.8911563 11.053703 8.7680156 10.988437 8.6660156 10.898438 C 8.5700156 10.802438 8.4934531 10.681109 8.4394531 10.537109 C 8.3914531 10.387109 8.3691406 10.202469 8.3691406 9.9804688 L 8.3691406 4.2207031 L 8.953125 4.1113281 z M 4.6621094 4.8046875 C 5.5441094 4.8046875 6.2008125 4.9725937 6.6328125 5.3085938 C 7.0648125 5.6445937 7.28125 6.1222344 7.28125 6.7402344 C 7.28125 7.0942344 7.2177969 7.3964375 7.0917969 7.6484375 C 6.9657969 7.8944375 6.7867344 8.0959531 6.5527344 8.2519531 C 6.3187344 8.4019531 6.0295 8.5139375 5.6875 8.5859375 C 5.3515 8.6519375 4.9709219 8.6835937 4.5449219 8.6835938 L 3.6992188 8.6835938 L 3.6992188 11.095703 L 3.0878906 11.095703 L 3.0878906 4.9765625 C 3.3038906 4.9165625 3.55575 4.8736094 3.84375 4.8496094 C 4.13775 4.8196094 4.4101094 4.8046875 4.6621094 4.8046875 z M 4.6894531 5.3359375 C 4.4614531 5.3359375 4.2655156 5.3452813 4.1035156 5.3632812 C 3.9475156 5.3752813 3.8132188 5.3864375 3.6992188 5.3984375 L 3.6992188 8.1523438 L 4.4726562 8.1523438 C 4.8026562 8.1523438 5.0992813 8.1356094 5.3632812 8.0996094 C 5.6332812 8.0576094 5.8628281 7.9848125 6.0488281 7.8828125 C 6.2408281 7.7748125 6.3862813 7.6274062 6.4882812 7.4414062 C 6.5902813 7.2554062 6.6425781 7.0184688 6.6425781 6.7304688 C 6.6425781 6.4544687 6.5847031 6.226875 6.4707031 6.046875 C 6.3627031 5.866875 6.2152969 5.7250469 6.0292969 5.6230469 C 5.8492969 5.5150469 5.6422031 5.4404375 5.4082031 5.3984375 C 5.1742031 5.3564375 4.9354531 5.3359375 4.6894531 5.3359375 z M 12.011719 8.8417969 L 12.410156 8.8417969 L 12.410156 11.486328 L 12.912109 11.486328 L 12.912109 11.796875 L 12.410156 11.796875 L 12.410156 12.896484 L 12.035156 12.896484 L 12.035156 11.796875 L 10.199219 11.796875 L 10.199219 11.5625 C 10.269419 11.3753 10.365434 11.163688 10.490234 10.929688 C 10.618934 10.695687 10.763928 10.456638 10.923828 10.210938 C 11.083728 9.9652374 11.258112 9.7261874 11.445312 9.4921875 C 11.632513 9.2542875 11.820619 9.0367969 12.011719 8.8417969 z M 12.035156 9.2695312 C 11.898656 9.4099313 11.759541 9.5706063 11.619141 9.7539062 C 11.478741 9.9372063 11.345497 10.129225 11.216797 10.328125 C 11.091997 10.523125 10.974434 10.719069 10.865234 10.917969 C 10.756034 11.116869 10.663944 11.306928 10.589844 11.486328 L 12.035156 11.486328 L 12.035156 9.2695312 z "
     id="path4" />
</svg>

<svg xmlns="http://www.w3.org/2000/svg" viewBox="0 0 16 16">
 <path d="m 1.6 0 c -0.886 0 -1.6 0.713 -1.6 1.6 l 0 12.801 c 0 0.886 0.713 1.6 1.6 1.6 l 12.801 0 c 0.886 0 1.6 -0.713 1.6 -1.6 l 0 -12.801 c 0 -0.886 -0.713 -1.6 -1.6 -1.6 l -12.801 0 z m 7.354 4.111 l 0 5.852 c 0 0.144 0.013 0.26 0.037 0.35 c 0.03 0.084 0.071 0.153 0.125 0.207 c 0.054 0.048 0.123 0.085 0.207 0.109 c 0.09 0.024 0.194 0.044 0.314 0.063 l -0.08 0.486 c -0.198 -0.006 -0.371 -0.034 -0.521 -0.082 c -0.144 -0.042 -0.267 -0.107 -0.369 -0.197 c -0.096 -0.096 -0.173 -0.217 -0.227 -0.361 c -0.048 -0.15 -0.07 -0.335 -0.07 -0.557 l 0 -5.76 l 0.584 -0.109 z m -4.291 0.693 c 0.882 0 1.539 0.168 1.971 0.504 c 0.432 0.336 0.648 0.814 0.648 1.432 c 0 0.354 -0.063 0.656 -0.189 0.908 c -0.126 0.246 -0.305 0.448 -0.539 0.604 c -0.234 0.15 -0.523 0.262 -0.865 0.334 c -0.336 0.066 -0.717 0.098 -1.143 0.098 l -0.846 0 l 0 2.412 l -0.611 0 l 0 -6.119 c 0.216 -0.06 0.468 -0.103 0.756 -0.127 c 0.294 -0.03 0.566 -0.045 0.818 -0.045 z m 0.027 0.531 c -0.228 0 -0.424 0.009 -0.586 0.027 c -0.156 0.012 -0.29 0.023 -0.404 0.035 l 0 2.754 l 0.773 0 c 0.33 0 0.627 -0.017 0.891 -0.053 c 0.27 -0.042 0.5 -0.115 0.686 -0.217 c 0.192 -0.108 0.337 -0.255 0.439 -0.441 c 0.102 -0.186 0.154 -0.423 0.154 -0.711 c 0 -0.276 -0.058 -0.504 -0.172 -0.684 c -0.108 -0.18 -0.255 -0.322 -0.441 -0.424 c -0.18 -0.108 -0.387 -0.183 -0.621 -0.225 c -0.234 -0.042 -0.473 -0.063 -0.719 -0.063 z m 7.322 3.506 l 0.398 0 l 0 2.645 l 0.502 0 l 0 0.311 l -0.502 0 l 0 1.1 l -0.375 0 l 0 -1.1 l -1.836 0 l 0 -0.234 c 0.07 -0.187 0.166 -0.399 0.291 -0.633 c 0.129 -0.234 0.274 -0.473 0.434 -0.719 c 0.16 -0.246 0.334 -0.485 0.521 -0.719 c 0.187 -0.238 0.375 -0.455 0.566 -0.65 z m 0.023 0.428 c -0.136 0.14 -0.276 0.301 -0.416 0.484 c -0.14 0.183 -0.274 0.375 -0.402 0.574 c -0.125 0.195 -0.242 0.391 -0.352 0.59 c -0.109 0.199 -0.201 0.389 -0.275 0.568 l 1.445 0 l 0 -2.217 z" style="fill:#ececec;fill-opacity:1"/>
</svg>
